X: 33559
T: Rakes Of Clonmel, The
R: jig
M: 6/8
K: Adorian
cBA BAG|EAA A2B|cBc Adc|BGF G3|
gfg age|dcB g2f|edc Bcd|1 e^cA fed:|2 e^cA A2^g||
ae^c ae^c|A^GB A2f|gdB gdB|GFA GAB|
cBc d^cd|e^de a2g|edc Bcd|1 e^cA A2^g:|2 e^cA fed||

